driving_time_log/assets/otherWork.svg

<?xml version="1.0" encoding="UTF-8"?>
<svg fill="none" viewBox="0 0 269 200"
    xmlns="http://www.w3.org/2000/svg">
    <line transform="matrix(-.70711 -.70711 -.70711 .70711 195.82 199.82)" x1="10" x2="175" y1="-10" y2="-10" stroke="#fff" stroke-linecap="round" stroke-width="20"/>
    <line x1="65" x2="181.67" y1="185.67" y2="69" stroke="#fff" stroke-linecap="round" stroke-width="20"/>
    <path d="m146.23 54.214c-3.934-3.947-3.882-10.347 0.114-14.231l32.435-31.517c3.921-3.8098 10.174-3.7649 14.04 0.10075l10.519 10.52 24.558 24.998c2.113 2.1508 3.143 5.1402 2.803 8.1361l-6.497 57.228c-0.946 8.329-11.103 11.868-17.02 5.931l-60.952-61.166z" fill="#fff"/>
    <path d="m121.88 54.279c3.933-3.947 3.881-10.347-0.115-14.23l-32.434-31.517c-3.9208-3.8098-10.174-3.7649-14.04 0.10075l-10.52 10.52-24.558 24.998c-2.113 2.1509-3.1427 5.1403-2.8026 8.1361l6.4973 57.227c0.9456 8.329 11.103 11.868 17.02 5.931l60.953-61.165z" fill="#fff"/>
</svg>

<svg width="269" height="200" viewBox="0 0 269 200" fill="none" xmlns="http://www.w3.org/2000/svg">
<line x1="10" y1="-10" x2="175" y2="-10" transform="matrix(-0.707107 -0.707107 -0.707107 0.707107 195.815 199.815)" stroke="white" stroke-width="20" stroke-linecap="round"/>
<line x1="65" y1="185.673" x2="181.673" y2="69" stroke="white" stroke-width="20" stroke-linecap="round"/>
<path d="M146.229 54.2143C142.295 50.2673 142.347 43.8669 146.343 39.9837L178.778 8.46696C182.699 4.65717 188.952 4.70203 192.818 8.56771L203.337 19.0875L227.895 44.0854C230.008 46.2362 231.038 49.2256 230.698 52.2215L224.201 109.449C223.255 117.778 213.098 121.317 207.181 115.38L146.229 54.2143Z" fill="white"/>
<path d="M121.877 54.2786C125.81 50.3316 125.758 43.9312 121.762 40.0481L89.3276 8.53129C85.4068 4.7215 79.1533 4.76637 75.2877 8.63204L64.7679 19.1518L40.2101 44.1497C38.0971 46.3006 37.0674 49.29 37.4075 52.2858L43.9048 109.513C44.8504 117.842 55.0077 121.381 60.9244 115.444L121.877 54.2786Z" fill="white"/>
</svg>
